app/dist/common/images/anthem.svg

<svg height="18" width="18" xmlns="http://www.w3.org/2000/svg"><path d="m0 0h18v18h-18z" fill="#0067a5"/><path d="m8.26 6.556 1.594 4.028h-3.09zm5.74 7.042h-1.088l-3.74-9.567-.012-.031h-.458l-3.67 9.599h-1.032v.401h3v-.402h-1.35l.953-2.598h3.397l.97 2.599h-1.424v.401h4.454z" fill="#fff"/></svg>

<!-- by TradingView --><svg width="18" height="18" xmlns="http://www.w3.org/2000/svg"><path fill="#0067A5" d="M0 0h18v18H0z"/><path d="M8.26 6.556l1.594 4.028h-3.09L8.26 6.556zM14 13.598h-1.088l-3.74-9.567L9.16 4h-.458l-3.67 9.599H4V14h3v-.402H5.65L6.603 11H10l.97 2.599H9.546V14H14v-.402z" fill="#fff"/></svg>
